X: 1
T: Aldi Flowers
M: 4/4
L: 1/8
R: reel
K: Dmaj
FG|:AAFD dAFD|GBAG (3AAA FG|AAFD dAFD|CDEF (3GGG FG|
AAFD dAFD|GBAG AAFG|AdcB ABAF|EDCE DDFG:|
|:Ad (3ddd Ad (3ddd|Ad (3ddd fedc|eA (3cBA eA (3cBA|eaaf gedB|
Ad (3ddd Ad (3ddd|Gd (3ddd fedc|eaaf (3gfe cB|1Addc d4:|2Addc (3ddd FG||
